X: 4272
T: The Banks of Spey.   a Strathspey
C: by Mr Marshall
%R: strathspey, air
B: Niel Gow & Sons "Complete Repository" v.4 p.27 #2
Z: 2021 John Chambers <jc:trillian.mit.edu>
M: C
L: 1/16
K: A
% - - - - - - - - - -
% Voice 1 formatted for compactness and proofreading.
V: 1 staves=2
c2 |\
A3EA2c2 TB3AB2c2 | e2c2 TB3A TB3AF2B2 |\
A3EA2c2 TB3AB2c2 | e3cTB3c AAA2 A2 :|
c2 |\
Aaga fedc ~d3e fedc | ~B3c (dcBA) B2F2F3B |\
A2a2 {f}e2dc .d.e.f.g a3c | TB3AB2c2 AAA2 A3B ||
Aaga (fedc) e3e fedc | TB3c (dcBA) B2F2F3B |\
A2c2E2c2 TB3AB2c2 | e3cTB3c AAA2 A2 |]
% - - - - - - - - - -
% Voice 2 preserves the book's staff layout.
V: 2 clef=bass middle=d
z2 |\
a4A4 e4d4 | c4A4 B2c2d4 | c4A4 e4d4 | c4e4 A4A2 :| z2 |\
a4a4 b3c'd'4 |
g4a4 d4d'4 | c'4a4 b4c'4 | e'4e4 a4A2z2 ||\
a4a4 c'4a4 | g4a4 d4d'4 | c'4a4 [e'4g4][e'4a4] | e'4e4 a4A2 |]


